svgs/sharp-solid/oil-can.svg

<svg xmlns="http://www.w3.org/2000/svg" viewBox="0 0 640 512"><!--! Font Awesome Pro 6.6.0 by @fontawesome - https://fontawesome.com License - https://fontawesome.com/license (Commercial License) Copyright 2024 Fonticons, Inc. --><path d="M288 128l64 0 0-64L160 64l0 64 64 0 0 32-80 0-48 0-48 0L0 160l0 48 0 96 96 42.7L96 416l288 0 48 0L640 192l-32-32L448 192l-64-32-96 0 0-32zM96 208l0 86.1L48 272.8 48 208l48 0z"/></svg>

<svg xmlns="http://www.w3.org/2000/svg" viewBox="0 0 640 512"><!--! Font Awesome Pro 6.4.0 by @fontawesome - https://fontawesome.com License - https://fontawesome.com/license (Commercial License) Copyright 2023 Fonticons, Inc. --><path d="M288 128h64V64H160v64h64v32H144 96 48 0v48 96l96 42.7V416H384h48L640 192l-32-32L448 192l-64-32H288V128zM96 208v86.1L48 272.8V208H96z"/></svg>
